assets/img/back.svg

<?xml version="1.0" encoding="UTF-8"?>
<svg width="13px" height="12px" viewBox="0 0 13 12" version="1.1" xmlns="http://www.w3.org/2000/svg" xmlns:xlink="http://www.w3.org/1999/xlink">
    <!-- Generator: Sketch 64 (93537) - https://sketch.com -->
    <title>back</title>
    <desc>Created with Sketch.</desc>
    <g id="Welcome" stroke="none" stroke-width="1" fill="none" fill-rule="evenodd">
        <g id="renew-upgrade-mobile-view-1.0" transform="translate(-20.000000, -130.000000)" fill="#000000" fill-rule="nonzero">
            <g id="back" transform="translate(20.000000, 130.000000)">
                <path d="M12.1979754,5.02531948 C12.1448728,5.01606234 12.0911317,5.01179221 12.0373616,5.01254026 L2.8816183,5.01254026 L3.08126116,4.9128 C3.27640625,4.81358961 3.4539375,4.67856623 3.60590402,4.51383896 L6.17340402,1.75602078 C6.51154911,1.4092987 6.56836607,0.851532468 6.30804687,0.434462338 C6.00507143,-0.00997402597 5.42404688,-0.106472727 5.01025223,0.218961039 C4.97682366,0.245267532 4.94504911,0.273942857 4.91518973,0.3048 L0.272332589,5.29181299 C-0.0905066964,5.68111169 -0.0908258929,6.31262338 0.271607143,6.70235844 C0.271839286,6.70260779 0.272100446,6.70288831 0.272332589,6.70313766 L4.91518973,11.6901506 C5.2783192,12.0791065 5.86625,12.0782338 6.22839286,11.688187 C6.25688839,11.6574857 6.28349777,11.6248208 6.30804687,11.5904104 C6.56836607,11.1733403 6.51154911,10.615574 6.17340402,10.2688519 L3.61054688,7.50604675 C3.47430804,7.35955325 3.31766964,7.23671688 3.14626116,7.14199481 L2.86768973,7.00734545 L11.9862612,7.00734545 C12.4606161,7.02626494 12.8767902,6.67034805 12.965904,6.16952727 C13.0479955,5.62578701 12.704192,5.11352727 12.1979754,5.02531948 Z" id="Path"></path>
            </g>
        </g>
    </g>
</svg>

<svg width="13" height="12" xmlns="http://www.w3.org/2000/svg"><path d="M12.198 5.025a.865.865 0 00-.16-.012H2.881l.2-.1c.194-.1.372-.234.524-.4l2.567-2.757A1.09 1.09 0 006.308.434C6.005-.01 5.424-.106 5.01.22a.949.949 0 00-.095.086L.272 5.292a1.05 1.05 0 000 1.41v.001l4.643 4.987a.884.884 0 001.313-.002.982.982 0 00.08-.098 1.09 1.09 0 00-.135-1.321L3.611 7.506a1.87 1.87 0 00-.465-.364l-.278-.135h9.118c.475.02.89-.337.98-.837.082-.544-.262-1.056-.768-1.145z"/></svg>
